X:1
T:Make a Start for Heaven Now
T:Make a Start for Heaven Now
T:R. Frank Lehman
T:Susie T. Matthews, 1900
T:Public Domain Courtesy of the Cyber Hymnal™
C:R. Frank Lehman
Z:Public Domain
Z:Courtesy of the Cyber Hymnal™
%%score ( 1 2 ) ( 3 4 )
L:1/8
Q:1/4=95
M:3/4
K:F
V:1 treble 
V:2 treble 
V:3 bass 
V:4 bass 
V:1
 [CA]3 [CA] [B,G][A,F] | [B,F]>[B,E] [B,E]4 | [EG]3 [FA] [Ec][DB] | [DB]2 [CA]2 z2 | %4
w: 1.~Bro- ther, heed the|warn- ing cry,|O’er and o’er re-|peat- ing,|
w: 2.~Bro- ther can you|heed- less hear,|How the Sav- ior|suf- fered?|
w: 3.~Life you feel in|ev- ery vein,|Think you death’s re-|treat- ing?|
 [CA]3 [CA] [B,G][A,F] | [B,E]>[B,E] [CE]4 | [FG]3 [FG] [FA][F=B] | [Fd]2 !fermata![Ec]4 || %8
w: Death and woe are|draw- ing nigh|As your pulse is|beat- ing.|
w: How that groans and|blood and tears|Bought the par- don|of- fered?|
w: You for- get that|grain by grain|Life and time are|fleet- ing.|
[M:4/4]"^Refrain" [Fc]>[Fc]"^With spirit" [Fc]>[Fc] [Fc]>[FA] [Fd]>[Fc] | (c4 A2) z2 | %10
w: ||
w: Bro- ther, make a start for Hea- ven|now; *|
w: ||
 [FA]>[FA] [FA]>[FA] [FA]>F [FB]>[FA] | ([FA]4 [EG]2) C2 | F2 E2 G2 F2 | [FB]4 [FA]2 F2 | %14
w: ||||
w: Hear the in- vi- ta- tion giv- en|now; * To-|mor- row may be|ne- ver, And|
w: ||||
 G2 F2 B2 A2 | [Fd]4 [Fc]2 z2 | [Fc]>[Fc] [Fc]>[Fc] [Ec]>[Ec] [Ec]>[Ec] | [Fc]4 z2 [GB]2 | %18
w: ||||
w: woe your por- tion|ev- er!|Bro- ther, make a start for Hea- ven|now! Just|
w: ||||
 [FA]2 z2 [EG]4 | [CF]6 z2 |] %20
w: ||
w: now, just|now.|
w: ||
V:2
 x6 | x6 | x6 | x6 | x6 | x6 | x6 | x6 ||[M:4/4] x8 | F6 x2 | x11/2 F/ x2 | x6 C2 | F2 E2 G2 F2 | %13
 x6 F2 | G2 F2 B2 A2 | x8 | x8 | x8 | x8 | x8 |] %20
V:3
 (F,,C, F,2) C,2 | (G,,C,) G,2 C,2 | (z C) C2 C2 | z C, F,2 C,2 | F,,C, F,2 C,2 | (G,,G,) G,2 G,2 | %6
 (G,,[G,=B,]) [G,B,]2 CD | C4 B,2 || [F,A,]>[F,A,] [F,A,]>[F,A,] [F,A,]>F,[F,B,]>[F,A,] | %9
 A,4 [F,C]2 z2 | [F,C]>[F,C] [F,C]>[F,C] [F,C]>[F,A,][F,D]>[F,C] | C6 C,2 | F,2 E,2 G,2 F,2 | %13
 [F,D]4 [F,C]2 F,2 | G,2 F,2 B,2 A,2 | [G,B,]4 [F,A,]2 z2 | %16
 [F,A,]>[F,A,] [F,A,]>[F,A,] [G,B,]>[G,B,][G,B,]>[G,B,] | [A,C]4 z2 [B,D]2 | C2 z2 [C,B,]4 | %19
 [F,,F,A,]6 z2 |] %20
V:4
 x6 | x6 | C,6 | F,,6 | x6 | x2 G,2 G,2 | x4 G,2 | C,6 || x11/2 F,/ x2 | F,2 C,2 x4 | x8 | %11
 (F,2 F,2 C,2) C,2 | F,2 E,2 G,2 F,2 | x6 F,2 | G,2 F,2 B,2 A,2 | x8 | x8 | x8 | C2 x6 | x8 |] %20

